X:885
T:Xiraldilla (CT 392)
R:Xiraldilla
C:Tradicional
S:Msica Tradicional Asturiana, (C) Tello & Tito. Asturies, 2001.
S:http://pagina.de/MusTradAst <telloytito@asturies.org>
N:Xiraldilla, transcrita en Uviu.
N:Las sealadas con los nmeros CT 390 y CT 392, son variantes de una misma meloda.
N:Estas xiraldillas son, ya de antiguo, muy corrientes en las romeras que se celebran en el concejo de Uviu.
A:Asturies
O:Uviu
Z:Cancioneru de Torner 392
M:2/4
L:1/8
Q:1/4=160
K:G
d
|de cd|B2 BB|cc cc|d2 Bd|de cd|B2 BB|cc AA|B2 zd|
ed cd|B2 BB|cc cc|d2 Bd|(de) cd|B2 BB|cc AA|B2 zB/c/|
dd/d/ dc|BB/B/ B2|cc/c/ c2|dd/d/ dB/c/|dd/d/ dc|BB/B/ B2|cc/c/ AA|B2 ||
W:Ni t, ni t, ni t,
W:ni tu hermano Periquito,
W:ni t, ni t, ni t,
W:ni tu hermano Peric,
W:Ni t, ni t, ni t,
W:ni tu hermano Periquito,
W:tenis un perrito
W:como el que tengo yo.
W:
W:Estribillu:
W:Con el alsa, piripi,
W:tmbamela, tmbamela, tmbamela;
W:con el alsa, piripi,
W:tmbamela, tmbamela y est.
W:
